X:1
T:Title
%%score { ( 1 3 5 ) | ( 2 4 6 ) }
L:1/8
M:4/4
K:Bb
V:1 treble nm="Grand Piano"
V:3 treble 
V:5 treble 
V:2 bass 
V:4 bass 
V:6 bass 
V:1
 z4 z2[Q:1/4=94] [DB]2 | [Fd]>[DB] [Ec][Fd] [DB] [DB]2 [DB] | cB G<B F3 [DF] | %3
 [DF][DF][DF][DF] [DB][DB][DB][FB] | [EA][DB]cd c3 e | [Fd]>[Fd] [Ec][Fd] [DB][DB][DB][DB] | %6
 cB G<B F3 [DF] | [DF][DF][DF][DF] [DB][DB][DB][DB] |[M:7/8] dBc d [DB]3 |[M:1/8] [_AB] | %10
[M:4/4] [Ge]>[Ge] [Ge][Ge] [Ge] [Ge]2 [GB] | [Fd]<[Fd] [Fd]>[Fd] [Fd]2 z2 | %12
 [=Ed][Ec] [Ec]<[Ec] [Ec][Ec] [Ec]/[Ec][Ec]/ | %13
[M:35/32] [=Ec][EB][EA][EG] F2 e-(3:2:4e3/2-e/4e3/4-e/8 |[M:4/4] (5:4:4[Fd]2 [Fd]/ [Ec][Fd]3/2 z4 | %15
 (5:4:5c/B/-B3/2 GB3/2 F3- F/4 z/4 z/ | z4 (3:2:2[DB]3/2[DB]3/2 z2 | %17
[M:7/8] [Fd]3/2-[Fd]/4 z/4 c- c/4 z/4 z/ z z2 |] %18
V:2
 z4 z2 [B,,B,]2 | [B,,B,]>[B,,B,] [B,,B,][B,,B,] [B,,F,] [B,,F,]2 [B,,F,] | %2
 [E,G,E][E,G,E] [E,B,E]<[G,B,E] [B,D]3 [B,,B,] | %3
 [B,,B,][B,,B,][B,,B,][B,,B,] [B,,F,][B,,F,][B,,F,][D,B,] | %4
 [C,F,][B,,F,][F,A,F][F,B,F] [F,A,F]3 [F,A,F] | %5
 [B,,B,]>[B,,B,] [B,,B,][B,,B,] [B,,F,] [B,,F,]2 [B,,F,] | %6
 [E,G,E][E,G,E] [E,B,E]<[G,B,E] [B,D]3 [B,,B,] | %7
 [B,,B,][B,,B,][B,,B,][B,,B,] [B,,F,][B,,F,][B,,F,][B,,F,] | %8
[M:7/8] [F,B,F][F,B,D][F,A,E] [F,A,F] [B,,B,]3 |[M:1/8] [B,,B,] | %10
[M:4/4] [E,B,]>[E,B,] [E,B,][E,B,] [E,B,] [E,B,]2 [E,B,] | %11
 [B,,B,]<[B,,B,] [B,,B,]>[B,,B,] [B,,B,]2 z2 | %12
 [C,C][C,C] [C,C]<[C,C] [C,G,][C,G,] [C,G,]/[C,G,][C,G,]/ | %13
[M:35/32] [C,G,][C,G,][C,C][C,B,] [F,A,]2 [F,A,F]-(3:2:4[F,A,F]3/2-[F,A,F]/4[F,A,F]3/4-[F,A,F]/8 | %14
[M:4/4] (5:4:4[B,,B,]2 [B,,B,]/ [B,,B,][B,,B,]3/2 z4 | %15
 (5:4:5[E,G,E]/[E,G,E]/-[E,G,E]3/2 [E,B,E][G,B,E]3/2 B,3- B,/4 z/4 z/ | %16
 (5:4:4[B,,B,][B,,B,]3/2 [B,,B,]/ [B,,B,]2 z2 (3[B,,F,]/[B,,F,]3/2[B,,F,] | %17
[M:7/8] z2 E- E/4 z/4 z/ z z2 |] %18
V:3
 x8 | x8 | x8 | x8 | x8 | x8 | x8 | x8 |[M:7/8] x7 |[M:1/8] x |[M:4/4] x8 | x8 | x8 | %13
[M:35/32] x35/4 |[M:4/4] z4 (3[DB] [DB]3 [FB]2 | z4 (3:2:2D4 [DF]2 | %16
 (5:4:4[DF][DF]3/2 [DF]/ [DF]2 z2 (3[DB]/[DB]3/2[DB] | %17
[M:7/8] z z/ [DB]/-[DB]/4 z/4 z/ d-d/4 z/4 z/ z2 |] %18
V:4
 x8 | x8 | x8 | x8 | x8 | x8 | x8 | x8 |[M:7/8] x7 |[M:1/8] x |[M:4/4] x8 | x8 | x8 | %13
[M:35/32] x35/4 |[M:4/4] z4 (3[B,,F,] [B,,F,]3 [D,B,]2 | z4 (3:2:2B,,4 [B,,B,]2 | %16
 z4 (3:2:2[B,,F,]3/2[B,,F,]3/2 z2 | %17
[M:7/8] B,3/2-[F,-B,]/4F,/4F, F-[B,,-F,-F]/<[B,,F,]/- [B,,F,]2 |] %18
V:5
 x8 | x8 | x8 | x8 | x8 | x8 | x8 | x8 |[M:7/8] x7 |[M:1/8] x |[M:4/4] x8 | x8 | x8 | %13
[M:35/32] x35/4 |[M:4/4] x8 | x8 | x8 |[M:7/8] z z z2 [DB]3 |] %18
V:6
 x8 | x8 | x8 | x8 | x8 | x8 | x8 | x8 |[M:7/8] x7 |[M:1/8] x |[M:4/4] x8 | x8 | x8 | %13
[M:35/32] x35/4 |[M:4/4] x8 | x8 | x8 |[M:7/8] B,,>B,,-B,,/4 z/4 z/ F, z z2 |] %18

